X: 9
T: the Boyne Hunt
R: reel
Z: 2006 John Chambers <jc:trillian.mit.edu>
B: "100 Essential Irish Session Tunes" 1995 Dave Mallinson, ed.
M: C|
L: 1/8
K: D
A | "D"BAFA DAFA | "D"DAFA "A7"BEEB | "D"BAFA    DAFB | "A7"ABde "D"fdd ||
A | "D"BAFA D3A  | "D"BAFA "A7"BEEG | "D"BAFA    DAFB | "A7"ABde "D"fdd |]
e | "D"faab afed | "G"gfga "Em"beeg | "D"faab    afed | "A7"ABde "D"fdd ||
e | "D"faab afed | "G"gfga "Em"beeg | "D"f3e "Bm"d3B  | "A7"ABde "D"fdd |]

%%sep 2 1 500
%%sep 1 1 500

